X: 1
T: Bert Ferguson    (G)
C: Samuel Ian Rothmar Burns (1980)
R: jig
Z: 2016 John Chambers <jc:trillian.mit.edu>
S: handout at Roaring Jelly practice 2016-3-24
M: 6/8
L: 1/8
K: G
G/A/ |\
"G"B>AB "D7"D>GA | "G"B>AB d2D | "C"E>AA "Am"A>GA | "D"B>AA "D7"A2G/A/ |
"G"B>AB "(D7)"D>GA | "G"B>AB "G7"d2D | "C"E<GG "Am"A>GE | "D7"D>GG "G"G2 :|
|: d |\
"Em"e<ge e>dB | "D"d>ef "G"g>dB | "Em"e<ge "Bm"e>dB | "Am"e>AA "D7"A2d |
"Em"e<ge e>dB | "D"d>cB "G7/B"B>AG | "C"E<GG "Am"A>GE | "D7"D>GG "G"G2 :|
